X:1
T:Title
%%score { 1 | ( 2 3 ) }
L:1/8
M:3/4
K:A
V:1 treble nm="Grand Piano"
V:2 bass 
V:3 bass 
V:1
 z2 z2[Q:1/4=100] [CE]2 | [CA]4 [EB]2 | [Ec]4 [A,EA]2 | [DFB]2 [CEA]2 [B,EG]2 | [CEA]4 B2 | c4 c2 | %6
 e4 [Ec]2 | [EB]4 [^DB]2 |[M:2/4] B4 |[M:1/4] E2 |[M:3/4] [EA]4 [EB]2 | [Ec]4 [A,EA]2 | %12
 [DFB]2 [CEA]2 [B,EG]2 | [CEA]4 [A,CE]2 | [A,DF]4 [FA]F | E4 A2 | c4 B2 |[M:2/4] [CA]4 |] %18
V:2
 z2 z2 [A,,A,]2 | [A,,A,]4 [E,G,]2 | A,4 C,2 | D,2 E,2 E,2 | A,,4 [E,G,E]2 | [A,E]4 [A,E]2 | %6
 [A,CE]4 [A,,A,]2 | [B,,G,]4 [B,,F,]2 |[M:2/4] [E,G,E]4 |[M:1/4] [E,G,]2 |[M:3/4] [C,A,]4 [E,G,]2 | %11
 A,4 C,2 | D,2 E,2 E,2 | A,,4 A,,2 | D,4 z D | [C,A,]4 [F,A,C]2 | [E,A,E]4 [E,G,D]2 | %17
[M:2/4] [A,,A,]4 |] %18
V:3
 x6 | x6 | x6 | x6 | x6 | x6 | x6 | x6 |[M:2/4] x4 |[M:1/4] x2 |[M:3/4] x6 | x6 | x6 | x6 | %14
 z2 z2 [D,A,]2 | x6 | x6 |[M:2/4] x4 |] %18

